!!!COM:	Bach, Johann Sebastian
!!!OMV:	Kommt her zu mir, spricht Gottes Sohn
!!!OTL:	Kommt her zu mir, spricht Gottes Sohn
**kern	**fb	**kern	**kern	**kern	**kern
*part5	*part5	*part4	*part3	*part2	*part1
*staff5	*	*staff4	*staff3	*staff2	*staff1
*I"Continuo	*	*I"Voice	*I"Voice	*I"Voice	*I"Voice
*I'Cont.	*	*I'V	*I'V	*I'V	*I'V
*clefF4	*	*clefF4	*clefGv2	*clefG2	*clefG2
*Trd0c0	*	*	*	*	*
*k[]	*	*k[]	*k[]	*k[]	*k[]
*M4/4	*	*M4/4	*M4/4	*M4/4	*M4/4
4AA	.	4AA	8cL	8eL	4a
.	.	.	8dJ	8fJ	.
=2	=2	=2	=2	=2	=2
4A	.	4A	8cL	4e	4a
.	.	.	8BJ	.	.
4F	7	4F	4A	8eL	4a
.	6	.	.	8dJ	.
4C	6	4C	8AL	4e	4ee
.	.	.	8cJ	.	.
4D	6 5	4D	8BL	4f	4dd
.	.	.	8AJ	.	.
=3	=3	=3	=3	=3	=3
4GG#X	6	4GG#X	4B	4e	4ee
4AA	.	4AA	4A	4e	4cc
4E;	#	4E;	4G#X;	4e;	4b;
8CL	6	8CL	4A	4e	8aL
8BBJ	.	8BBJ	.	.	8bJ
=4	=4	=4	=4	=4	=4
4AA	.	4AA	4e	4a	4cc
4E	#	4E	4e	4g#X	4b
8AL	.	8AL	4e	4a	8ccL
8BJ	.	8BJ	.	.	8ddJ
4c	nr5	4c	4e	8gnL	4ee
.	6	.	.	8aJ	.
=5	=5	=5	=5	=5	=5
4G#X	6 5	4G#X	4f	4b	4dd
4A	.	4A	4e	4a	4cc
4E;	#	4E;	4e;	4g#X;	4b;
8AL	.	8AL	4e	4a	8ccL
8GnJ	.	8GnJ	.	.	8bJ
=6	=6	=6	=6	=6	=6
8F#XL	6	8F#XL	4A	8dL	4a
8EJ	.	8EJ	.	8eJ	.
8DL	#	8DL	4d	4f#X	4a
8CJ	.	8CJ	.	.	.
4BB	#5\	4BB	4d	4f#	8ddL
.	.	.	.	.	8ccJ
8EL	.	8EL	4e	4gn	8bL
8CJ	6 5	8CJ	.	.	8ccJ
=7	=7	=7	=7	=7	=7
!!linebreak:original
2D	4	2D	8d	4g	2a
.	.	.	16cLL	.	.
.	.	.	16BJJ	.	.
.	#	.	4c	4f#X	.
4GG;	.	4GG;	4B;	4d;	4g;
8CL	.	8CL	4c	8eL	4g
8DJ	.	8DJ	.	8fnJ	.
=8	=8	=8	=8	=8	=8
8EL	6	8EL	8GL	4g	4cc
8FJ	.	8FJ	8AJ	.	.
8GL	.	8GL	8BL	4d	4b
8FJ	.	8FJ	8AJ	.	.
4E	.	4E	4G	8eL	8ccL
.	.	.	.	8fJ	8ddJ
8DL	.	8DL	4c	4g	4ee
8CJ	.	8CJ	.	.	.
=9	=9	=9	=9	=9	=9
4BB	#6\	4BB	4d	4g#X	4dd
4AA	.	4AA	4e	4a	4cc
4E;	#	4E;	4e;	4g#;	4b;
8AL	.	8AL	8cL	4e	8aL
8GJ	.	8GnJ	8BJ	.	8bJ
=10	=10	=10	=10	=10	=10
8F#XL	6 5	8F#XL	4A	4d	4cc
8DJ	.	8DJ	.	.	.
8GL	.	8GL	8BL	4d	4b
8FnJ	.	8FnJ	8AJ	.	.
8EL	6	8EL	4G	8eL	8ccL
8DJ	.	8DJ	.	8fJ	8ddJ
8CL	5	8CL	4c	4gn	4ee
8BBJ	.	8BBJ	.	.	.
=11	=11	=11	=11	=11	=11
8AAL	6 4 2	8AAL	8cL	8fL	4dd
8GG#XJ	6 5	8GG#XJ	8BJ	8eJ	.
4AA	9	4AA	8BL	4e	4cc
.	8	.	8AJ	.	.
4E;	#	4E;	4G#X;	4e;	4b;
4E	#	4E	4B	4g#X	4ee
=12	=12	=12	=12	=12	=12
!!pagebreak:original
8AL	.	8AL	4c	4a	4ee
8GJ	.	8GnJ	.	.	.
8FL	7 #5\	8FL	4c#X	4gn	4ee
8EJ	.	8EJ	.	.	.
8FL	6	8FL	4.d	4.f	8ddL
8EJ	.	8EJ	.	.	8ccnJ
8DL	.	8DL	.	.	8bL
8CJ	6	8CJ	8e	8e	8ccJ
=13	=13	=13	=13	=13	=13
8DL	6	8DL	4d	4f	8bL
8BBJ	#6\	8BBJ	.	.	8g#XJ
8CL	6	8CL	8cL	8eL	8aL
8DJ	6 5	8DJ	8AJ	8fJ	8bJ
8EL	5 #	8EL	8G#X	8eL	2b
8DJ	.	8DJ	4A	8fJ	.
4E	#	4E	.	8eL	.
.	.	.	8G#	8dJ	.
=14	=14	=14	=14	=14	=14
2.AA;	.	2.AA;	2.E;	2.c#X;	2.a;
=||	=||	=||	=||	=||	=||
*-	*-	*-	*-	*-	*-
!!!system-decoration: s1,s2,s3,s4,s5
